_includes/icons/ios-open.svg

<svg fill="#666" height="50" viewBox="0 0 50 50" width="50" xmlns="http://www.w3.org/2000/svg"><path d="m3 4c-1.644531 0-3 1.355469-3 3v36.90625c-.0625.230469-.0390625.472656.0625.6875.28125 1.363281 1.5 2.40625 2.9375 2.40625h39c1.492188 0 2.71875-1.125 2.9375-2.5625.007813-.0625.027344-.125.03125-.1875 0-.019531 0-.042969 0-.0625l.03125-.15625c0-.011719 0-.019531 0-.03125l4.96875-26.8125.03125-.09375v-.09375c0-1.644531-1.355469-3-3-3v-3c0-1.644531-1.355469-3-3-3h-25.96875c.003906.003906-.007812 0-.03125 0-.03125-.023437-.121094-.097656-.28125-.28125-.246094-.28125-.53125-.75-.84375-1.25s-.648437-1.03125-1.0625-1.5c-.414062-.46875-.992187-.96875-1.8125-.96875zm0 2h11c-.0625 0 .066406 0 .3125.28125s.53125.75.84375 1.25.65625 1.03125 1.0625 1.5.960938.96875 1.78125.96875h26c.5625 0 1 .4375 1 1v3h-37c-1.574219 0-2.828125 1.265625-2.9375 2.8125h-.03125l-.03125.1875-3 16.1875v-26.1875c0-.5625.4375-1 1-1zm5 10h39c.5625 0 1 .4375 1 1l-4.90625 26.53125-.03125.0625c-.011719.039063-.023437.082031-.03125.125-.011719.039063-.023437.082031-.03125.125v.0625.03125c-.015625.050781-.023437.101563-.03125.15625-.003906.03125.003906.0625 0 .09375-.003906.042969-.003906.082031 0 .125-.125.40625-.511719.6875-.96875.6875h-39c-.5625 0-1-.4375-1-1l4.96875-26.8125.03125-.09375v-.09375c0-.5625.4375-1 1-1z"/></svg>

<svg xmlns="http://www.w3.org/2000/svg" viewBox="0 0 50 50" width="50" height="50" fill="#666"><path d="M 3 4 C 1.355469 4 0 5.355469 0 7 L 0 43.90625 C -0.0625 44.136719 -0.0390625 44.378906 0.0625 44.59375 C 0.34375 45.957031 1.5625 47 3 47 L 42 47 C 43.492188 47 44.71875 45.875 44.9375 44.4375 C 44.945313 44.375 44.964844 44.3125 44.96875 44.25 C 44.96875 44.230469 44.96875 44.207031 44.96875 44.1875 L 45 44.03125 C 45 44.019531 45 44.011719 45 44 L 49.96875 17.1875 L 50 17.09375 L 50 17 C 50 15.355469 48.644531 14 47 14 L 47 11 C 47 9.355469 45.644531 8 44 8 L 18.03125 8 C 18.035156 8.003906 18.023438 8 18 8 C 17.96875 7.976563 17.878906 7.902344 17.71875 7.71875 C 17.472656 7.4375 17.1875 6.96875 16.875 6.46875 C 16.5625 5.96875 16.226563 5.4375 15.8125 4.96875 C 15.398438 4.5 14.820313 4 14 4 Z M 3 6 L 14 6 C 13.9375 6 14.066406 6 14.3125 6.28125 C 14.558594 6.5625 14.84375 7.03125 15.15625 7.53125 C 15.46875 8.03125 15.8125 8.5625 16.21875 9.03125 C 16.625 9.5 17.179688 10 18 10 L 44 10 C 44.5625 10 45 10.4375 45 11 L 45 14 L 8 14 C 6.425781 14 5.171875 15.265625 5.0625 16.8125 L 5.03125 16.8125 L 5 17 L 2 33.1875 L 2 7 C 2 6.4375 2.4375 6 3 6 Z M 8 16 L 47 16 C 47.5625 16 48 16.4375 48 17 L 43.09375 43.53125 L 43.0625 43.59375 C 43.050781 43.632813 43.039063 43.675781 43.03125 43.71875 C 43.019531 43.757813 43.007813 43.800781 43 43.84375 C 43 43.863281 43 43.886719 43 43.90625 C 43 43.917969 43 43.925781 43 43.9375 C 42.984375 43.988281 42.976563 44.039063 42.96875 44.09375 C 42.964844 44.125 42.972656 44.15625 42.96875 44.1875 C 42.964844 44.230469 42.964844 44.269531 42.96875 44.3125 C 42.84375 44.71875 42.457031 45 42 45 L 3 45 C 2.4375 45 2 44.5625 2 44 L 6.96875 17.1875 L 7 17.09375 L 7 17 C 7 16.4375 7.4375 16 8 16 Z"/></svg>
